X: 2
T: Doonagore
R: reel
M: 4/4
L: 1/8
K: Gmaj
GE |: DG ~G2 FGAc | BG ~G2 A2 Bc | ~d2 cA BG ~G2 | AdcA GFED || DG ~G2 FGAc | BG ~G2 A2 Bc | ~d2 cA BG ~G2 |1 AdcA G2 GE :|2 AdcA ~G4 |||: ~g3 e fdde | fdge fd ~d2 | ~g3 e fdd^c | defd ~g4 || ~g3 e fddc | BG ~G2 A2 Bc | d2 cA BG ~G2 |1 AdcA G2 ef :|2 d2 cA BG G2


Tune 2816	Setting 29064

